X:1
T:Sarabande frm BWV1002
T:Sarabande from BWV1002 for bandoneon solo
T:J.S.Bach
C:J.S.Bach
%%score { ( 1 2 ) | ( 3 4 ) }
L:1/8
M:3/4
K:D
V:1 treble nm="Piano" snm="Pno."
V:2 treble 
V:3 bass 
V:4 bass 
V:1
 vf2 g2 fe | f3 !3!e dc | uBe dc dB | ^A3 z z2 | !3!B2 A2 G/F/G | c3 d e2 | ued ed cB |1 %7
 [cf]3 z z2 :|2 [cf]6 |: v^a2 a2 a2 | z f ba ^gf | u!3!!4!!5![^GBe]2 !3!!4!!2![Acf]2 !3!!2![e^g]2 | %12
 !2!!4![ca]3 vg fe | ^d=c' be da | =c/B/c/A/ Ba [Bg]2 | %15
 u!2!!4!!5![A=cg]!2!f [GBf]e !2!!3!!4![FAe]^d | e3 z z2 | [ce]2 dc BA | d3 e f2 | %19
 u!4!!5![db]2 g2 f2 | v[ce]3 [df] g2 | B^A/g/ fe dc | d3 e [cf]2 | u!3!!4!!2![GBf]2 ed cB | %24
 ^A3 z z2 | vB2 !2!!3![^Ac]2 [Bd]2 | d!2!^G Bd ^gd | u!3!c/B/c d/c/d !3!!4![Be]2 | %28
 [^Ae]B ce !3!^ae | v[db]2 [ca]2 [Bg]2 | ^Ag fe d2 | z uc c3 B | [FB]6 |] %33
V:2
 d2 d2 c2 | d3 x3 | x6 | x6 | x6 | x6 | x6 |1 x6 :|2 x6 |: c2 c2 c2 | B z z4 | x6 | x6 | x6 | x6 | %15
 x6 | x6 | x6 | x6 | x6 | x4 ec | x6 | x6 | x6 | x6 | x6 | x6 | x6 | x6 | x6 | x6 | x6 | x6 |] %33
V:3
 !4!B,2 !3!E2 !5!A2 | !4!D3 z z2 | !1!G2 E2 ^E2 | !4!F3 v!4!G FE | [DF]2 [CE]2 !4!B,2 | %5
 !4!!5![A,G]4 !3!!2![^A,F]2 | !5!F2 !1!G4 |1 !4!F3 !3!E DC :|2 F6 |: !2!F2 !3!E2 F2 | D2 z4 | %11
 !2!D2 C2 [B,D]2 | [A,E]3 z z2 | !4!A3 !5!G !2!F2 | E2 ^D2 E2 | !4!A,2 B,2 B,2 | !2!E3 vD CB, | %17
 [A,E]2 z2 G2 | F2 E2 !4!!5![DA]2 | [G,D]2 E2 D2 | A4 z2 | [CE]2 z4 | !4!!2![B,F]4 !3![A,F]2 | %23
 G,2 z2 E2 | F3 !2!G FE | [DF]2 C2 B,2 | E4 z2 | !2!E2 D2 [CE]2 | F4 z2 | !2!F2 E2 D2 | %30
 [CE]2 z2 !4!!2![B,F]2 | !3!E2 F4 | B,6 |] %33
V:4
 x6 | x6 | x6 | x6 | x6 | x6 | !4!D,6 |1 x6 :|2 x6 |: x6 | x6 | x6 | x6 | x6 | x6 | x6 | x6 | x6 | %18
 x6 | x6 | x6 | x6 | x6 | x6 | x6 | x6 | x6 | x6 | x6 | x6 | x6 | x6 | x6 |] %33

